X: 3287
T: Belharbour, The
R: reel
M: 4/4
K: Gmajor
E|DG~G2 D2(3Bcd|~g2dg egdB|~A3G AcBA|GBAF GFEF|
DG~G2 D2(3Bcd|~g2dg egdB|GA(3Bcd gedc|B2AF ~G3:|:z||
dggf gd(3Bcd|g2af gfed|eaag ~a3g|eaag egdB|
dggf gd(3Bcd|g2af gedB|GA(3Bcd gedc|B2AF ~G3:|

